static/assets/items/metaglass.svg

<svg xmlns="http://www.w3.org/2000/svg" viewBox="0 0 32 32"><path d="M0 .5V0h32v32H0V.5M17.5 31q.5 0 .875-.125T19 30.5l.5-.5.5-.5.5-.5.5-.5.5-.5.5-.5.5-.5.5-.5.5-.5.5-.5.5-.5.5-.5.5-.5.5-.5.5-.5.5-.5.5-.5.5-.5.5-.5.5-.5.5-.5.5-.5.5-.5q.25-.25.375-.625T31 17.5v-1q0-.5-.125-.875T30.5 15l-.5-.5-.5-.5-.5-.5-.5-.5-.5-.5-.5-.5-.5-.5-.5-.5-.5-.5-.5-.5-.5-.5-.5-.5-.5-.5-.5-.5-.5-.5-.5-.5-.5-.5-.5-.5-.5-.5-.5-.5-.5-.5-.5-.5-.5-.5-.5-.5-.5-.5-.5-.5-.5-.5q-.25-.25-.625-.375T15.5 1h-2q-.5 0-.875.125T12 1.5l-.5.5-.5.5-.5.5-.5.5-.5.5-.5.5-.5.5-.5.5-.5.5-.5.5-.5.5-.5.5-.5.5-.5.5-.5.5-.5.5-.5.5-.5.5-.5.5-.5.5-.5.5q-.25.25-.375.625T1 13.5v1q0 .5.125.875T1.5 16l.5.5.5.5.5.5.5.5.5.5.5.5.5.5.5.5.5.5.5.5.5.5.5.5.5.5.5.5.5.5.5.5.5.5.5.5.5.5.5.5.5.5.5.5.5.5.5.5.5.5.5.5.5.5.5.5.5.5q.25.25.625.375T17.5 31" fill="none"/><path d="M12 1.5q.25-.25.625-.375T13.5 1h2q.5 0 .875.125T17 1.5l.5.5.5.5.5.5.5.5.5.5.5.5.5.5.5.5.5.5.5.5.5.5.5.5.5.5.5.5.5.5.5.5.5.5.5.5.5.5.5.5.5.5.5.5.5.5.5.5.5.5.5.5.25.25L30 15q-.25.25-.125.625T29.5 16q-.5 0-.5.5t-.5.5-.5.5-.5.5-.5.5-.5.5-.5.5-.5.5-.5.5-.5.5-.5.5-.5.5-.5.5-.5.5-.5.5-.5.5-.5.5-.5.5-.5.5-.5.5-.5.5-.5.5q-.5 0-.5-.5t-.5-.5-.5-.5-.5-.5-.5-.5-.5-.5-.5-.5-.5-.5-.5-.5-.5-.5-.5-.5-.5-.5-.5-.5-.5-.5-.5-.5-.5-.5-.5-.5-.5-.5-.5-.5-.5-.5-.5-.5-.5-.5-.5-.5-.5-.5-.5-.5-.5-.5-.5-.5-.5-.5-.5-.5-.5-.5q-.5 0-.375-.375T3 11l-.25-.25.25-.25.5-.5.5-.5.5-.5.5-.5.5-.5.5-.5.5-.5.5-.5.5-.5.5-.5.5-.5.5-.5.5-.5.5-.5.5-.5.5-.5.5-.5.5-.5m-9.0625 9.0625L2.75 10.75l-.0625.0625-.0625.0625.125-.125.25-.25.125-.125-.1875.1875M22.5 16q.5 0 .5-.5t.5-.5.5-.5v-1-1q0-.5-.5-.5t-.5-.5-.5-.5-.5-.5-.5-.5-.5-.5-.5-.5-.5-.5-.5-.5-.5-.5-.5-.5-.5-.5-.5-.5-.5-.5-.5-.5-.5-.5-.5-.5h-2q-.5 0-.5.5t-.5.5-.5.5v2q0 .5.5.5t.5.5.5.5.5.5.5.5.5.5.5.5.5.5.5.5.5.5.5.5.5.5.5.5.5.5.5.5.5.5.5.5h2m7.8125-1.1875L30.25 14.75l-.1875-.1875-.1875-.1875.125.125.25.25.125.125-.0625-.0625" fill="#ebeef5"/><path d="M13 4.5q0-.5.5-.5h2q.5 0 .5.5t.5.5.5.5.5.5.5.5.5.5.5.5.5.5.5.5.5.5.5.5.5.5.5.5.5.5.5.5.5.5.5.5v2q0 .5-.5.5t-.5.5-.5.5h-2q-.5 0-.5-.5t-.5-.5-.5-.5-.5-.5-.5-.5-.5-.5-.5-.5-.5-.5-.5-.5-.5-.5-.5-.5-.5-.5-.5-.5-.5-.5-.5-.5-.5-.5-.5-.5v-1-1q0-.5.5-.5t.5-.5" fill="#fff"/><path d="M2 11.5l.5-.5.25-.25L3 11q.25.25.125.625T3.5 12q.5 0 .5.5t.5.5.5.5.5.5.5.5.5.5.5.5.5.5.5.5.5.5.5.5.5.5.5.5.5.5.5.5.5.5.5.5.5.5.5.5.5.5.5.5.5.5.5.5.5.5.5.5.5.5.5.5.5.5.5.5.5.5q.5 0 .5-.5t.5-.5.5-.5.5-.5.5-.5.5-.5.5-.5.5-.5.5-.5.5-.5.5-.5.5-.5.5-.5.5-.5.5-.5.5-.5.5-.5.5-.5.5-.5.5-.5.5-.5.5-.5q.5 0 .375-.375T30 15l.25-.25.25.25q.25.25.375.625T31 16.5v1q0 .5-.125.875T30.5 19l-.5.5-.5.5-.5.5-.5.5-.5.5-.5.5-.5.5-.5.5-.5.5-.5.5-.5.5-.5.5-.5.5-.5.5-.5.5-.5.5-.5.5-.5.5-.5.5-.5.5-.5.5-.5.5-.5.5q-.25.25-.625.375T17.5 31q-.5 0-.875-.125T16 30.5l-.5-.5-.5-.5-.5-.5-.5-.5-.5-.5-.5-.5-.5-.5-.5-.5-.5-.5-.5-.5-.5-.5-.5-.5-.5-.5-.5-.5-.5-.5-.5-.5-.5-.5-.5-.5-.5-.5-.5-.5-.5-.5-.5-.5-.5-.5-.5-.5-.5-.5-.5-.5-.5-.5-.5-.5-.5-.5q-.25-.25-.375-.625T1 14.5v-1q0-.5.125-.875T1.5 12l.5-.5m28.4375 3.4375L30.25 14.75l-.0625-.0625-.0625-.0625.125.125.25.25.125.125-.1875-.1875m-27.625-4.25L2.75 10.75l-.1875.1875-.1875.1875L2.5 11l.25-.25.125-.125-.0625.0625" fill="#d0d0e0"/></svg>

<?xml version="1.0" encoding="UTF-8" standalone="no"?>
<!-- Created with Inkscape (http://www.inkscape.org/) -->

<svg
   xmlns:dc="http://purl.org/dc/elements/1.1/"
   xmlns:cc="http://creativecommons.org/ns#"
   xmlns:rdf="http://www.w3.org/1999/02/22-rdf-syntax-ns#"
   xmlns:svg="http://www.w3.org/2000/svg"
   xmlns="http://www.w3.org/2000/svg"
   xmlns:sodipodi="http://sodipodi.sourceforge.net/DTD/sodipodi-0.dtd"
   xmlns:inkscape="http://www.inkscape.org/namespaces/inkscape"
   version="1.1"
   id="svg5830"
   width="32"
   height="32"
   viewBox="0 0 32 32"
   sodipodi:docname="metaglass.svg"
   inkscape:version="0.92.5 (2060ec1f9f, 2020-04-08)">
  <metadata
     id="metadata5836">
    <rdf:RDF>
      <cc:Work
         rdf:about="">
        <dc:format>image/svg+xml</dc:format>
        <dc:type
           rdf:resource="http://purl.org/dc/dcmitype/StillImage" />
        <dc:title></dc:title>
      </cc:Work>
    </rdf:RDF>
  </metadata>
  <defs
     id="defs5834" />
  <sodipodi:namedview
     pagecolor="#ffffff"
     bordercolor="#666666"
     borderopacity="1"
     objecttolerance="10"
     gridtolerance="10"
     guidetolerance="10"
     inkscape:pageopacity="0"
     inkscape:pageshadow="2"
     inkscape:window-width="1366"
     inkscape:window-height="705"
     id="namedview5832"
     showgrid="false"
     inkscape:zoom="7.375"
     inkscape:cx="16"
     inkscape:cy="16"
     inkscape:window-x="-8"
     inkscape:window-y="-8"
     inkscape:window-maximized="1"
     inkscape:current-layer="svg5830" />
  <g
     id="g6391">
    <path
       style="fill:#000000;fill-opacity:0"
       d="M 0,0.5 V 0 H 0.5 1 1.5 2 2.5 3 3.5 4 4.5 5 5.5 6 6.5 7 7.5 8 8.5 9 9.5 10 10.5 11 11.5 12 12.5 13 13.5 14 14.5 15 15.5 16 16.5 17 17.5 18 18.5 19 19.5 20 20.5 21 21.5 22 22.5 23 23.5 24 24.5 25 25.5 26 26.5 27 27.5 28 28.5 29 29.5 30 30.5 31 31.5 32 V 0.5 1 1.5 2 2.5 3 3.5 4 4.5 5 5.5 6 6.5 7 7.5 8 8.5 9 9.5 10 10.5 11 11.5 12 12.5 13 13.5 14 14.5 15 15.5 16 16.5 17 17.5 18 18.5 19 19.5 20 20.5 21 21.5 22 22.5 23 23.5 24 24.5 25 25.5 26 26.5 27 27.5 28 28.5 29 29.5 30 30.5 31 31.5 32 H 31.5 31 30.5 30 29.5 29 28.5 28 27.5 27 26.5 26 25.5 25 24.5 24 23.5 23 22.5 22 21.5 21 20.5 20 19.5 19 18.5 18 17.5 17 16.5 16 15.5 15 14.5 14 13.5 13 12.5 12 11.5 11 10.5 10 9.5 9 8.5 8 7.5 7 6.5 6 5.5 5 4.5 4 3.5 3 2.5 2 1.5 1 0.5 0 V 31.5 31 30.5 30 29.5 29 28.5 28 27.5 27 26.5 26 25.5 25 24.5 24 23.5 23 22.5 22 21.5 21 20.5 20 19.5 19 18.5 18 17.5 17 16.5 16 15.5 15 14.5 14 13.5 13 12.5 12 11.5 11 10.5 10 9.5 9 8.5 8 7.5 7 6.5 6 5.5 5 4.5 4 3.5 3 2.5 2 1.5 1 0.5 M 17.5,31 Q 18,31 18.375,30.875 18.75,30.75 19,30.5 19.25,30.25 19.5,30 19.75,29.75 20,29.5 20.25,29.25 20.5,29 20.75,28.75 21,28.5 21.25,28.25 21.5,28 21.75,27.75 22,27.5 22.25,27.25 22.5,27 22.75,26.75 23,26.5 23.25,26.25 23.5,26 23.75,25.75 24,25.5 24.25,25.25 24.5,25 24.75,24.75 25,24.5 25.25,24.25 25.5,24 25.75,23.75 26,23.5 26.25,23.25 26.5,23 26.75,22.75 27,22.5 27.25,22.25 27.5,22 27.75,21.75 28,21.5 28.25,21.25 28.5,21 28.75,20.75 29,20.5 29.25,20.25 29.5,20 29.75,19.75 30,19.5 30.25,19.25 30.5,19 30.75,18.75 30.875,18.375 31,18 31,17.5 31,17 31,16.5 31,16 30.875,15.625 30.75,15.25 30.5,15 30.25,14.75 30,14.5 29.75,14.25 29.5,14 29.25,13.75 29,13.5 28.75,13.25 28.5,13 28.25,12.75 28,12.5 27.75,12.25 27.5,12 27.25,11.75 27,11.5 26.75,11.25 26.5,11 26.25,10.75 26,10.5 25.75,10.25 25.5,10 25.25,9.75 25,9.5 24.75,9.25 24.5,9 24.25,8.75 24,8.5 23.75,8.25 23.5,8 23.25,7.75 23,7.5 22.75,7.25 22.5,7 22.25,6.75 22,6.5 21.75,6.25 21.5,6 21.25,5.75 21,5.5 20.75,5.25 20.5,5 20.25,4.75 20,4.5 19.75,4.25 19.5,4 19.25,3.75 19,3.5 18.75,3.25 18.5,3 18.25,2.75 18,2.5 17.75,2.25 17.5,2 17.25,1.75 17,1.5 16.75,1.25 16.375,1.125 16,1 15.5,1 15,1 14.5,1 14,1 13.5,1 13,1 12.625,1.125 12.25,1.25 12,1.5 11.75,1.75 11.5,2 11.25,2.25 11,2.5 10.75,2.75 10.5,3 10.25,3.25 10,3.5 9.75,3.75 9.5,4 9.25,4.25 9,4.5 8.75,4.75 8.5,5 8.25,5.25 8,5.5 7.75,5.75 7.5,6 7.25,6.25 7,6.5 6.75,6.75 6.5,7 6.25,7.25 6,7.5 5.75,7.75 5.5,8 5.25,8.25 5,8.5 4.75,8.75 4.5,9 4.25,9.25 4,9.5 3.75,9.75 3.5,10 3.25,10.25 3,10.5 2.75,10.75 2.5,11 2.25,11.25 2,11.5 1.75,11.75 1.5,12 1.25,12.25 1.125,12.625 1,13 1,13.5 1,14 1,14.5 1,15 1.125,15.375 1.25,15.75 1.5,16 q 0.25,0.25 0.5,0.5 0.25,0.25 0.5,0.5 0.25,0.25 0.5,0.5 0.25,0.25 0.5,0.5 0.25,0.25 0.5,0.5 0.25,0.25 0.5,0.5 0.25,0.25 0.5,0.5 0.25,0.25 0.5,0.5 0.25,0.25 0.5,0.5 0.25,0.25 0.5,0.5 0.25,0.25 0.5,0.5 0.25,0.25 0.5,0.5 0.25,0.25 0.5,0.5 0.25,0.25 0.5,0.5 0.25,0.25 0.5,0.5 0.25,0.25 0.5,0.5 0.25,0.25 0.5,0.5 0.25,0.25 0.5,0.5 0.25,0.25 0.5,0.5 0.25,0.25 0.5,0.5 0.25,0.25 0.5,0.5 0.25,0.25 0.5,0.5 0.25,0.25 0.5,0.5 0.25,0.25 0.5,0.5 0.25,0.25 0.5,0.5 0.25,0.25 0.5,0.5 0.25,0.25 0.5,0.5 0.25,0.25 0.5,0.5 0.25,0.25 0.5,0.5 0.25,0.25 0.625,0.375 Q 17,31 17.5,31"
       id="path6383"
       inkscape:connector-curvature="0" />
    <path
       style="fill:#ebeef5;fill-opacity:1"
       d="M 12,1.5 Q 12.25,1.25 12.625,1.125 13,1 13.5,1 14,1 14.5,1 15,1 15.5,1 16,1 16.375,1.125 16.75,1.25 17,1.5 q 0.25,0.25 0.5,0.5 0.25,0.25 0.5,0.5 0.25,0.25 0.5,0.5 0.25,0.25 0.5,0.5 0.25,0.25 0.5,0.5 0.25,0.25 0.5,0.5 0.25,0.25 0.5,0.5 0.25,0.25 0.5,0.5 0.25,0.25 0.5,0.5 0.25,0.25 0.5,0.5 0.25,0.25 0.5,0.5 0.25,0.25 0.5,0.5 0.25,0.25 0.5,0.5 0.25,0.25 0.5,0.5 0.25,0.25 0.5,0.5 0.25,0.25 0.5,0.5 0.25,0.25 0.5,0.5 0.25,0.25 0.5,0.5 0.25,0.25 0.5,0.5 0.25,0.25 0.5,0.5 0.25,0.25 0.5,0.5 0.25,0.25 0.5,0.5 0.25,0.25 0.5,0.5 0.25,0.25 0.5,0.5 0.25,0.25 0.5,0.5 0.25,0.25 0.5,0.5 L 30.25,14.75 30,15 Q 29.75,15.25 29.875,15.625 30,16 29.5,16 29,16 29,16.5 29,17 28.5,17 28,17 28,17.5 28,18 27.5,18 27,18 27,18.5 27,19 26.5,19 26,19 26,19.5 26,20 25.5,20 25,20 25,20.5 25,21 24.5,21 24,21 24,21.5 24,22 23.5,22 23,22 23,22.5 23,23 22.5,23 22,23 22,23.5 22,24 21.5,24 21,24 21,24.5 21,25 20.5,25 20,25 20,25.5 20,26 19.5,26 19,26 19,26.5 19,27 18.5,27 18,27 18,26.5 18,26 17.5,26 17,26 17,25.5 17,25 16.5,25 16,25 16,24.5 16,24 15.5,24 15,24 15,23.5 15,23 14.5,23 14,23 14,22.5 14,22 13.5,22 13,22 13,21.5 13,21 12.5,21 12,21 12,20.5 12,20 11.5,20 11,20 11,19.5 11,19 10.5,19 10,19 10,18.5 10,18 9.5,18 9,18 9,17.5 9,17 8.5,17 8,17 8,16.5 8,16 7.5,16 7,16 7,15.5 7,15 6.5,15 6,15 6,14.5 6,14 5.5,14 5,14 5,13.5 5,13 4.5,13 4,13 4,12.5 4,12 3.5,12 3,12 3.125,11.625 3.25,11.25 3,11 L 2.75,10.75 3,10.5 Q 3.25,10.25 3.5,10 3.75,9.75 4,9.5 4.25,9.25 4.5,9 4.75,8.75 5,8.5 5.25,8.25 5.5,8 5.75,7.75 6,7.5 6.25,7.25 6.5,7 6.75,6.75 7,6.5 7.25,6.25 7.5,6 7.75,5.75 8,5.5 8.25,5.25 8.5,5 8.75,4.75 9,4.5 9.25,4.25 9.5,4 9.75,3.75 10,3.5 10.25,3.25 10.5,3 10.75,2.75 11,2.5 11.25,2.25 11.5,2 11.75,1.75 12,1.5 M 2.9375,10.5625 2.75,10.75 2.6875,10.8125 2.625,10.875 2.75,10.75 Q 2.875,10.625 3,10.5 L 3.125,10.375 2.9375,10.5625 M 22.5,16 Q 23,16 23,15.5 23,15 23.5,15 24,15 24,14.5 24,14 24,13.5 24,13 24,12.5 24,12 23.5,12 23,12 23,11.5 23,11 22.5,11 22,11 22,10.5 22,10 21.5,10 21,10 21,9.5 21,9 20.5,9 20,9 20,8.5 20,8 19.5,8 19,8 19,7.5 19,7 18.5,7 18,7 18,6.5 18,6 17.5,6 17,6 17,5.5 17,5 16.5,5 16,5 16,4.5 16,4 15.5,4 15,4 14.5,4 14,4 13.5,4 13,4 13,4.5 13,5 12.5,5 12,5 12,5.5 12,6 12,6.5 12,7 12,7.5 12,8 12.5,8 13,8 13,8.5 13,9 13.5,9 14,9 14,9.5 q 0,0.5 0.5,0.5 0.5,0 0.5,0.5 0,0.5 0.5,0.5 0.5,0 0.5,0.5 0,0.5 0.5,0.5 0.5,0 0.5,0.5 0,0.5 0.5,0.5 0.5,0 0.5,0.5 0,0.5 0.5,0.5 0.5,0 0.5,0.5 0,0.5 0.5,0.5 0.5,0 0.5,0.5 0,0.5 0.5,0.5 0.5,0 1,0 0.5,0 1,0 M 30.3125,14.8125 30.25,14.75 30.0625,14.5625 29.875,14.375 30,14.5 q 0.125,0.125 0.25,0.25 l 0.125,0.125 -0.0625,-0.0625"
       id="path6385"
       inkscape:connector-curvature="0" />
    <path
       style="fill:#ffffff;fill-opacity:1"
       d="M 13,4.5 Q 13,4 13.5,4 14,4 14.5,4 15,4 15.5,4 16,4 16,4.5 16,5 16.5,5 17,5 17,5.5 17,6 17.5,6 18,6 18,6.5 18,7 18.5,7 19,7 19,7.5 19,8 19.5,8 20,8 20,8.5 20,9 20.5,9 21,9 21,9.5 q 0,0.5 0.5,0.5 0.5,0 0.5,0.5 0,0.5 0.5,0.5 0.5,0 0.5,0.5 0,0.5 0.5,0.5 0.5,0 0.5,0.5 0,0.5 0,1 0,0.5 0,1 Q 24,15 23.5,15 23,15 23,15.5 23,16 22.5,16 22,16 21.5,16 21,16 20.5,16 20,16 20,15.5 20,15 19.5,15 19,15 19,14.5 19,14 18.5,14 18,14 18,13.5 18,13 17.5,13 17,13 17,12.5 17,12 16.5,12 16,12 16,11.5 16,11 15.5,11 15,11 15,10.5 15,10 14.5,10 14,10 14,9.5 14,9 13.5,9 13,9 13,8.5 13,8 12.5,8 12,8 12,7.5 12,7 12,6.5 12,6 12,5.5 12,5 12.5,5 13,5 13,4.5"
       id="path6387"
       inkscape:connector-curvature="0" />
    <path
       style="fill:#d0d0e0;fill-opacity:1"
       d="M 2,11.5 Q 2.25,11.25 2.5,11 L 2.75,10.75 3,11 Q 3.25,11.25 3.125,11.625 3,12 3.5,12 4,12 4,12.5 4,13 4.5,13 5,13 5,13.5 5,14 5.5,14 6,14 6,14.5 6,15 6.5,15 7,15 7,15.5 7,16 7.5,16 8,16 8,16.5 8,17 8.5,17 9,17 9,17.5 9,18 9.5,18 10,18 10,18.5 10,19 10.5,19 11,19 11,19.5 11,20 11.5,20 12,20 12,20.5 12,21 12.5,21 13,21 13,21.5 13,22 13.5,22 14,22 14,22.5 14,23 14.5,23 15,23 15,23.5 15,24 15.5,24 16,24 16,24.5 16,25 16.5,25 17,25 17,25.5 17,26 17.5,26 18,26 18,26.5 18,27 18.5,27 19,27 19,26.5 19,26 19.5,26 20,26 20,25.5 20,25 20.5,25 21,25 21,24.5 21,24 21.5,24 22,24 22,23.5 22,23 22.5,23 23,23 23,22.5 23,22 23.5,22 24,22 24,21.5 24,21 24.5,21 25,21 25,20.5 25,20 25.5,20 26,20 26,19.5 26,19 26.5,19 27,19 27,18.5 27,18 27.5,18 28,18 28,17.5 28,17 28.5,17 29,17 29,16.5 29,16 29.5,16 30,16 29.875,15.625 29.75,15.25 30,15 L 30.25,14.75 30.5,15 q 0.25,0.25 0.375,0.625 Q 31,16 31,16.5 q 0,0.5 0,1 0,0.5 -0.125,0.875 Q 30.75,18.75 30.5,19 30.25,19.25 30,19.5 29.75,19.75 29.5,20 29.25,20.25 29,20.5 28.75,20.75 28.5,21 28.25,21.25 28,21.5 27.75,21.75 27.5,22 27.25,22.25 27,22.5 26.75,22.75 26.5,23 26.25,23.25 26,23.5 25.75,23.75 25.5,24 25.25,24.25 25,24.5 24.75,24.75 24.5,25 24.25,25.25 24,25.5 23.75,25.75 23.5,26 23.25,26.25 23,26.5 22.75,26.75 22.5,27 22.25,27.25 22,27.5 21.75,27.75 21.5,28 21.25,28.25 21,28.5 20.75,28.75 20.5,29 20.25,29.25 20,29.5 19.75,29.75 19.5,30 19.25,30.25 19,30.5 18.75,30.75 18.375,30.875 18,31 17.5,31 17,31 16.625,30.875 16.25,30.75 16,30.5 15.75,30.25 15.5,30 15.25,29.75 15,29.5 14.75,29.25 14.5,29 14.25,28.75 14,28.5 13.75,28.25 13.5,28 13.25,27.75 13,27.5 12.75,27.25 12.5,27 12.25,26.75 12,26.5 11.75,26.25 11.5,26 11.25,25.75 11,25.5 10.75,25.25 10.5,25 10.25,24.75 10,24.5 9.75,24.25 9.5,24 9.25,23.75 9,23.5 8.75,23.25 8.5,23 8.25,22.75 8,22.5 7.75,22.25 7.5,22 7.25,21.75 7,21.5 6.75,21.25 6.5,21 6.25,20.75 6,20.5 5.75,20.25 5.5,20 5.25,19.75 5,19.5 4.75,19.25 4.5,19 4.25,18.75 4,18.5 3.75,18.25 3.5,18 3.25,17.75 3,17.5 2.75,17.25 2.5,17 2.25,16.75 2,16.5 1.75,16.25 1.5,16 1.25,15.75 1.125,15.375 1,15 1,14.5 1,14 1,13.5 1,13 1.125,12.625 1.25,12.25 1.5,12 1.75,11.75 2,11.5 M 30.4375,14.9375 30.25,14.75 30.1875,14.6875 30.125,14.625 30.25,14.75 q 0.125,0.125 0.25,0.25 l 0.125,0.125 -0.1875,-0.1875 M 2.8125,10.6875 2.75,10.75 2.5625,10.9375 2.375,11.125 2.5,11 q 0.125,-0.125 0.25,-0.25 l 0.125,-0.125 -0.0625,0.0625"
       id="path6389"
       inkscape:connector-curvature="0" />
  </g>
</svg>
